packages/bezier-icons/icons/soccerball.svg

<svg width="24" height="24" viewBox="0 0 24 24" fill="none" xmlns="http://www.w3.org/2000/svg">
<path d="M15.8042 13.2355L12 15.9994L8.19577 13.2355L9.64886 8.76333H14.3511L15.8042 13.2355Z" fill="#313234"/>
<path fill-rule="evenodd" clip-rule="evenodd" d="M12.0005 21.9997C9.4476 21.9997 7.11814 21.0431 5.35102 19.4687C4.70582 18.894 4.13555 18.237 3.65675 17.5141C2.71321 16.0892 2.12495 14.4083 2.01811 12.5982C2.00643 12.4002 2 12.2003 2 11.9994C2 11.3095 2.06987 10.6358 2.20292 9.98522C2.33743 9.32743 2.53699 8.69362 2.79376 8.08978C3.13158 7.29521 3.56859 6.55342 4.09037 5.87998C5.22728 4.41278 6.76422 3.27036 8.53664 2.61588C9.33162 2.3224 10.1744 2.12646 11.0498 2.04395C11.3628 2.01443 11.6798 1.99969 12.0005 1.99969C12.3209 1.99969 12.6377 2.01476 12.9504 2.04422C13.8255 2.12671 14.6678 2.32174 15.4626 2.61513C19.2791 4.02364 22.0005 7.69394 22.0005 11.9997C22.0005 17.5225 17.5233 21.9997 12.0005 21.9997ZM6.29366 13.9727L4.00459 11.7414C4.05121 10.2717 4.49425 8.90199 5.23033 7.73573L8.47329 7.2645L9.95423 4.26379C10.6074 4.09148 11.2932 3.99969 12.0005 3.99969C12.7074 3.99969 13.3928 4.09137 14.0456 4.26348L15.5267 7.2645L18.7708 7.73589C19.5066 8.90186 19.9496 10.2712 19.9964 11.7405L17.7063 13.9727L18.2291 17.0206C17.3133 18.1552 16.0937 19.0345 14.694 19.5349L12 18.1186L9.30638 19.5347C7.9065 19.0341 6.68686 18.1545 5.77109 17.0195L6.29366 13.9727Z" fill="#313234"/>
</svg>

<svg xmlns="http://www.w3.org/2000/svg" width="24" height="24" fill="none" viewBox="0 0 24 24"><path fill="#313234" d="M15.804 13.236 12 15.999l-3.804-2.764 1.453-4.472h4.702z"/><path fill="#313234" fill-rule="evenodd" d="M12 22a9.96 9.96 0 0 1-6.649-2.531 10 10 0 0 1-1.694-1.955A9.95 9.95 0 0 1 2 12q.002-1.036.203-2.014A9.989 9.989 0 0 1 4.09 5.88a10.03 10.03 0 0 1 4.447-3.264A10 10 0 0 1 12 2q.48 0 .95.044a10 10 0 0 1 2.512.571A10 10 0 0 1 22 12c0 5.523-4.478 10-10 10m-5.706-8.027-2.29-2.232c.047-1.47.49-2.839 1.226-4.005l3.243-.471 1.481-3.001A8 8 0 0 1 12.001 4c.706 0 1.392.091 2.045.263l1.48 3.002 3.245.47a7.96 7.96 0 0 1 1.225 4.006l-2.29 2.232.523 3.048a8 8 0 0 1-3.535 2.514L12 18.119l-2.694 1.416c-1.4-.5-2.62-1.38-3.535-2.515z" clip-rule="evenodd"/></svg>
